X: 21934
T: Kittins On Catnip
R: reel
M: 4/4
K: Dmixolydian
"D"d2A2 "C"cBAG|"D"A2 F"C"G3 E2|"D"F2D2 "F"=FGAB|"G"GAB2 "C"c2Bc|
"D"d2A2 "C"cBAG|"D"A2 F"C"G3 E2|"D"F2D2 "F"AGF=F|"C"E2 C"D"D3z2:|
"C"G2 EC2GEC|"D"FDAD BDA2|"C"G2 EC2GEC|"D"FDAD F3A|
"C"G2 EC2GEC|"D"FDAD BDA2|"F"AG=FE "G"GFED|1 .E2 G2 A3F:|2 .E2 G2 ^G3||

